Obsidian-SemiLight/actions/24s/align-vertical-center.svg

<svg viewBox="0 0 24 24" xmlns="http://www.w3.org/2000/svg"><path d="m5 6v1 4.5h-1v1h1v5.5h1 3 1v-5.5h4v1.5 1h1 3 1v-1-1.5h1v-1h-1v-2.5h-1-3-1v2.5h-4v-5.5h-1zm1 1h3v10h-3zm9 3h3v4h-3z" fill="#4d4d4d"/></svg>

<svg xmlns="http://www.w3.org/2000/svg" viewBox="0 0 24 24">
  <defs id="defs3051">
    <style type="text/css" id="current-color-scheme">
      .ColorScheme-Text {
        color:#4d4d4d;
      }
      </style>
  </defs>
 <path style="fill:currentColor;fill-opacity:1;stroke:none" 
     d="M 5 6 L 5 7 L 5 11.5 L 4 11.5 L 4 12.5 L 5 12.5 L 5 18 L 6 18 L 9 18 L 10 18 L 10 12.5 L 14 12.5 L 14 14 L 14 15 L 15 15 L 18 15 L 19 15 L 19 14 L 19 12.5 L 20 12.5 L 20 11.5 L 19 11.5 L 19 9 L 18 9 L 15 9 L 14 9 L 14 11.5 L 10 11.5 L 10 6 L 9 6 L 5 6 z M 6 7 L 9 7 L 9 17 L 6 17 L 6 7 z M 15 10 L 18 10 L 18 14 L 15 14 L 15 10 z "
     class="ColorScheme-Text"
     />
</svg>
